X: 43282
T: Woodcock Hill
R: hornpipe
M: 4/4
K: Dmajor
(3ABc|:d2 d>f e>c (3ABc|d>AF>B A>FD>F|E>FG>A B>df>d|(3efe (3dcB A2 B>c|
d>Ad>f e>^de>g|(3faf d>f a>fd>A|(3Bcd c>B A>GF>E|1 (3DED C>E D2- D>A:|2 (3DED C>E D2- D>B||
|:A>^GA>c e>cA>c|e>dc>B A>f a2|(3gag e2 (3fgf d>f|e>dc>B A2 B>c|
d>A d2 e>^d e2|(3faf d>f a>fd>A|(3Bcd c>B A>GF>E|1 (3DED C>E D2- D>B:|2 (3DED C>E D2||

